X:37
T:Sister's Jig
M:6/8
L:1/8
K:G
%%MIDI channel 1
%%MIDI program 72
%%MIDI transpose 8
%%MIDI grace 1/8
%%MIDI ratio 3 1
d|B2d (gfg|agf g2)d|B2d (gfg)|a2A A2d|B2d (gfg|
agf g2)d|Bdd Add|B2G G2::G|B2d d2B|(=c2e) Le3|
B2d (gfg)|a2A LA3|B2d d2B|(=c2e) Le3|Bdd Add|B2G G3:|
